X:1
T:Mist Covered Mountains
R:Jig
M:6/8
L:1/8
K:G
%%printtempo 0
Q:160
|: EAA ABd | eAA AGE | GGG GAB | dBA GED |
 EAA ABd | eAA AGE | efg dBG | BAG A3 :|
 age a2b | age edB | AGE G2A | BAB GED |
 age a2b | age edB | AGE G2A | BAG A3 |
 age a2b | age edB | AGE G2A | BAB GED |
 EDE G2A | BAG Bcd | efg dBG | BAG A3 |]
